media/img/consult-food.svg

<svg width="66" height="54" viewBox="0 0 66 54" fill="none" xmlns="http://www.w3.org/2000/svg">
<path d="M55.6555 21.1947H49.8408L61.0569 3.41306L65.1569 5.82482L55.6555 21.1947ZM8.01758 33.3613V25.1113H65.3509V33.3613C65.3509 44.4602 56.5331 53.278 45.4342 53.278H27.9342C25.4922 53.278 23.1621 52.8513 21.0128 52.0685C13.3858 49.2905 8.01758 42.0217 8.01758 33.3613Z" fill="#575843" stroke="#575843"/>
<path d="M7.01754 32.6471L0.5 30.2749V22.5891L7.01754 24.9613V32.6471Z" fill="#575843" stroke="#575843" stroke-linejoin="round"/>
<path d="M15.0384 49.8938C10.224 46.1495 7.12635 40.3295 7.02035 33.7123L0.512365 31.3436C0.800044 39.6858 6.08005 46.6313 13.4951 49.3321L15.0384 49.8938ZM15.0384 49.8938L13.4952 49.3322L15.0384 49.8938Z" fill="#575843" stroke="#575843" stroke-linejoin="round"/>
<path d="M24.122 52.9231C23.0511 52.7202 22.0125 52.4332 21.0129 52.0691L21.0128 52.069L19.5148 51.5238C19.7845 51.535 20.0557 51.5412 20.3281 51.5423L24.122 52.9231Z" fill="#575843" stroke="#575843" stroke-linejoin="round"/>
<path d="M7.6057 24.1112L2.83564 22.375H58.2452L63.0152 24.1112H7.6057Z" fill="#575843" stroke="#575843" stroke-linejoin="round"/>
<path d="M42.5989 53.2772H28.0227L23.2526 51.541H37.8288L42.5989 53.2772Z" fill="#575843" stroke="#575843" stroke-linejoin="round"/>
<path d="M60.1391 2.99391L48.7267 21.0868L42.1707 18.7006L53.5831 0.607729L60.1391 2.99391Z" fill="#575843" stroke="#575843" stroke-linejoin="round"/>
<path d="M49.0227 21.1951L44.2526 19.459H48.3288L53.0989 21.1951H49.0227Z" fill="#575843" stroke="#575843" stroke-linejoin="round"/>
<path d="M60.8917 3.31573L58.5474 2.46248L58.3342 2.3371L60.6785 3.19035L60.8917 3.31573Z" fill="#575843" stroke="#575843" stroke-linejoin="round"/>
<path d="M55.7232 21.0848L49.1654 18.698L58.545 3.52503L65.1028 5.91188L55.7232 21.0848Z" fill="#575843" stroke="#575843" stroke-linejoin="round"/>
<path d="M45.5222 53.2776L40.371 51.4028C50.6127 50.2341 58.4815 41.8264 58.8222 31.3349L65.3483 33.7102C65.1662 44.6152 56.4633 53.2318 45.5222 53.2776Z" fill="#575843" stroke="#575843" stroke-linejoin="round"/>
<path d="M65.3505 32.6471L58.833 30.2749V22.5891L65.3505 24.9613V32.6471Z" fill="#575843" stroke="#575843" stroke-linejoin="round"/>
<path d="M41.4167 18.9583L53.375 0L58.3333 2.91667L48.4167 18.9583H41.4167ZM39.6667 21.875H0V30.625C0 42 9.04167 51.0417 20.4167 51.0417H37.9167C49.2917 51.0417 58.3333 42 58.3333 30.625V21.875H39.6667Z" fill="#EBEBEA"/>
</svg>

<svg width="66" height="54" viewBox="0 0 66 54" fill="none" xmlns="http://www.w3.org/2000/svg"><path d="M55.656 21.195H49.84L61.057 3.413l4.1 2.412-9.501 15.37zM8.018 33.36v-8.25H65.35v8.25c0 11.1-8.818 19.917-19.917 19.917h-17.5a20.18 20.18 0 01-6.921-1.21C13.386 49.291 8.018 42.023 8.018 33.361z" fill="#575843" stroke="#575843"/><path d="M7.018 32.647L.5 30.275v-7.686l6.518 2.372v7.686zm8.02 17.247C10.224 46.15 7.126 40.33 7.02 33.712L.512 31.344C.8 39.686 6.08 46.63 13.495 49.332l1.543.562zm0 0l-1.543-.562 1.543.562zm9.084 3.029a19.91 19.91 0 01-3.11-.854h0l-1.497-.545c.27.011.54.017.813.018l3.794 1.381zM7.606 24.111l-4.77-1.736h55.41l4.77 1.736H7.605zm34.993 29.166H28.023l-4.77-1.736h14.576l4.77 1.736zM60.14 2.994L48.726 21.087 42.17 18.7 53.583.608l6.556 2.386z" fill="#575843" stroke="#575843" stroke-linejoin="round"/><path d="M49.023 21.195l-4.77-1.736h4.076l4.77 1.736h-4.076zM60.892 3.316l-2.345-.854-.213-.125 2.344.853.214.126zm-5.169 17.769l-6.558-2.387 9.38-15.173 6.558 2.387-9.38 15.173zM45.522 53.278l-5.151-1.875c10.242-1.169 18.11-9.577 18.451-20.068l6.526 2.375c-.182 10.905-8.885 19.522-19.826 19.568zM65.35 32.647l-6.517-2.372v-7.686l6.517 2.372v7.686z" fill="#575843" stroke="#575843" stroke-linejoin="round"/><path d="M41.417 18.958L53.375 0l4.958 2.917-9.916 16.041h-7zm-1.75 2.917H0v8.75C0 42 9.042 51.042 20.417 51.042h17.5c11.375 0 20.416-9.042 20.416-20.417v-8.75H39.667z" fill="#EBEBEA"/></svg>
